X:375
T:Reel 375
M:4/4
K:Dmaj
L:1/8
 (3ABc |d2FG Adef|gfed gdBc|d2FG A2AB|AFEG FDDA|d2FG Adef|gfed gdBc|d2FG A2ag|faef d2| (3efg |afbf afdf|gfed cd (3efg |afbf afdf|abag fd (3efg |afbf afdf|gfed fd (3Bcd | (3Bcd Ag Fd (3efd |AFEF D2|
